extensions/wp-bones/assets/menu-bar-updates.svg

<svg clip-rule="evenodd" fill-rule="evenodd" stroke-linejoin="round" stroke-miterlimit="2" viewBox="0 0 256 256" xmlns="http://www.w3.org/2000/svg"><path d="m143.068 255.12c-4.936.581-9.967.88-15.068.88-70.645 0-128-57.355-128-128s57.355-128 128-128 128 57.355 128 128c0 5.609-.362 11.135-1.062 16.546-13.666-11.08-31.126-17.747-50.147-17.792 10.525-5.31 17.731-16.075 17.731-28.48 0-17.662-14.607-32-32.599-32-17.993 0-32.6 14.338-32.6 32 0 .473.01.944.031 1.413h-58.072c0-17.662-14.608-32-32.6-32s-32.599 14.338-32.599 32c0 12.841 7.722 23.926 18.852 29.019-11.13 5.094-18.852 16.179-18.852 29.02 0 17.662 14.607 32 32.599 32 15.918 0 29.186-11.223 32.034-26.039h38.489c-7.662 12.082-12.096 26.374-12.096 41.682 0 18.869 6.737 36.195 17.959 49.751z" fill="#fff"/><circle cx="-28.5" cy="67.5" fill="#ffc808" r="39.5" transform="matrix(1.2913 0 0 1.27714 241.398 119.162)"/></svg>

<?xml version="1.0" encoding="UTF-8" standalone="no"?>
<!DOCTYPE svg PUBLIC "-//W3C//DTD SVG 1.1//EN" "http://www.w3.org/Graphics/SVG/1.1/DTD/svg11.dtd">
<svg width="100%" height="100%" viewBox="0 0 256 256" version="1.1" xmlns="http://www.w3.org/2000/svg" xmlns:xlink="http://www.w3.org/1999/xlink" xml:space="preserve" xmlns:serif="http://www.serif.com/" style="fill-rule:evenodd;clip-rule:evenodd;stroke-linejoin:round;stroke-miterlimit:2;">
    <g>
        <path d="M143.068,255.12C138.132,255.701 133.101,256 128,256C57.355,256 -0,198.645 -0,128C-0,57.355 57.355,0 128,0C198.645,0 256,57.355 256,128C256,133.609 255.638,139.135 254.938,144.546C241.272,133.466 223.812,126.799 204.791,126.754C215.316,121.444 222.522,110.679 222.522,98.274C222.522,80.612 207.915,66.274 189.923,66.274C171.93,66.274 157.323,80.612 157.323,98.274C157.323,98.747 157.333,99.218 157.354,99.687L99.282,99.687C99.282,82.025 84.674,67.687 66.682,67.687C48.69,67.687 34.083,82.025 34.083,99.687C34.083,112.528 41.805,123.613 52.935,128.706C41.805,133.8 34.083,144.885 34.083,157.726C34.083,175.388 48.69,189.726 66.682,189.726C82.6,189.726 95.868,178.503 98.716,163.687L137.205,163.687C129.543,175.769 125.109,190.061 125.109,205.369C125.109,224.238 131.846,241.564 143.068,255.12Z" style="fill:white;"/>
        <g transform="matrix(1.2913,0,0,1.27714,241.398,119.162)">
            <circle cx="-28.5" cy="67.5" r="39.5" style="fill:rgb(255,200,8);"/>
        </g>
    </g>
</svg>
